X: 1
T: Hommage \`a Philippe Bruneau
C: Guy Loyer
O: arr. Peter Macfarland
Z: 2020 John Chambers <jc:trillian.mit.edu>
S: https://www.facebook.com/groups/fiddlehellmassachusetts/ 2020-6-17
M: 3/4
L: 1/8
K: D
dcB |\
"D"AF DF BF | "(F#m)"A3 dcB | "Bm"AF DF BF | "G"G3 dcB |\
"A"cB Ac BA | c3 c cB |1,3 "A7"Ac Ac AG | "D"F3 :|2,4 "A7"Ac AG FE | "D"D3 :|
|: dAd |\
"D"fd Ad Ad | fd Ad Ad | "Em"ge ce Ae | ge ce Ae |\
"F#m"af df df | af df df | "A7"ge cA Bc "D"d3 :|
